public/operators/CAT.svg

<svg xmlns="http://www.w3.org/2000/svg" xmlns:xlink="http://www.w3.org/1999/xlink" viewBox="0 0 841.89 595.28"><clipPath id="a"><path d="m0 595.28h841.89v-595.28h-841.89z"/></clipPath><g clip-path="url(#a)" transform="matrix(2.132882125 0 0 -2.132882125 -591.01333 702.46131)"><path d="m0 0-4.271-8.739h19.323l-12.392-25.419h12.634l12.391 25.419h23.096l4.271 8.739zm-5.701 0h-46.595c-6.079.039-13.155-3.477-15.417-7.765l-12.879-26.401h12.599l6.286 12.974h32.947l-6.287-12.974h12.684zm-48.217-8.739h31.273l-2.039-4.176h-32.955l1.401 2.895c.342.708 1.379 1.281 2.32 1.281m-72.657-15.367c-.33-.707.158-1.285 1.087-1.285l43.631-.01-4.277-8.765-46.704.008c-5.81.246-8.983 3.582-7.456 7.781l8.896 18.223c2.515 4.539 9.522 8.169 15.946 8.169l50.901-.015c-3.613-1.574-6.762-4.015-8.276-6.886l-.903-1.853h-43.653c-.941 0-1.975-.573-2.319-1.281z" fill="#47545b" transform="translate(419.647 327.458)"/><path d="m0 0h113.49l-4.26 8.75h-104.968zm115.416-3.945h-117.344l-4.273-8.767h114.93c5.626.357 8.666 3.656 7.166 7.781zm-82.555 25.391h58.789c6.264-.221 12.916-3.745 15.358-8.154l.293-.597h-78.713z" fill="#acca57" transform="translate(446.1602 306.0122)"/><path d="m0 0-.221 2.352c-.758-.37-1.714-.588-2.669-.588-2.522 0-3.991 1.445-3.991 4.187 0 2.522 1.346 4.334 3.844 4.334.883 0 1.789-.146 2.694-.441l.245 2.326c-.857.246-1.91.344-2.743.344-4.775 0-6.856-3.209-6.856-6.809 0-3.867 2.106-6.268 6.269-6.268 1.248 0 2.374.196 3.428.563m11.232 12.342h-2.645v-12.732h2.645zm17.626-2.254v2.254h-9.696v-2.254h3.526v-10.479h2.644v10.479zm17.621 2.254h-2.743l-1.861-3.526c-.392-.759-.809-1.591-1.15-2.474-.344.857-.686 1.617-1.054 2.351l-1.885 3.649h-2.915l4.457-8.496v-4.237h2.645v4.26zm29.515-12.733-4.799 12.733h-3.11l-4.823-12.733h2.644l.931 2.473h5.313l.907-2.473zm-4.504 4.383h-4.017l1.372 3.6c.245.66.489 1.371.635 1.982.198-.586.442-1.345.687-2.008zm15.146 8.35h-2.646v-12.732h2.646zm19.487-12.733-3.158 4.26c-.393.539-.736 1.027-1.029 1.371 2.031.319 3.478 1.569 3.478 3.651 0 2.349-1.764 3.525-4.801 3.525-1.566 0-3.232-.025-4.162-.074v-12.733h2.645v5.239l3.769-5.239zm-3.502 9.01c0-1.199-.906-2.008-2.303-2.008-.416 0-.855.026-1.222.049v3.674c.342.049.685.049 1.125.049 1.494 0 2.4-.613 2.4-1.764m21.098-.318c0 2.572-1.838 4.115-5.069 4.115-1.494 0-3.086-.049-4.162-.074v-12.733h2.643v4.186c.318-.024.808-.049 1.127-.049 3.232 0 5.461 1.764 5.461 4.555m-2.817-.17c0-1.494-1.004-2.279-2.644-2.279-.344 0-.832.025-1.127.099v4.309c.344.025.808.025 1.299.025 1.64 0 2.472-.906 2.472-2.154m22.937-2.033c0 4.31-2.572 6.465-6.269 6.465-3.528 0-6.611-2.524-6.611-6.711 0-3.819 2.057-6.463 6.193-6.463 3.65 0 6.687 2.496 6.687 6.709m-2.841-.172c0-2.84-1.665-4.211-3.7-4.211-2.496 0-3.523 1.91-3.523 4.334 0 2.742 1.687 4.211 3.623 4.211 2.18 0 3.6-1.492 3.6-4.334m21.05-6.317-3.158 4.26c-.39.539-.734 1.027-1.027 1.371 2.031.319 3.476 1.569 3.476 3.651 0 2.349-1.763 3.525-4.8 3.525-1.567 0-3.231-.025-4.163-.074v-12.733h2.645v5.239l3.771-5.239zm-3.5 9.01c0-1.199-.906-2.008-2.302-2.008-.416 0-.858.026-1.225.049v3.674c.344.049.687.049 1.127.049 1.494 0 2.4-.613 2.4-1.764m19.604 1.469v2.254h-9.697v-2.254h3.525v-10.479h2.645v10.479zm26.33 0v2.254h-9.697v-2.254h3.527v-10.479h2.645v10.479zm17.67-10.479-3.16 4.26c-.391.539-.735 1.027-1.028 1.371 2.032.319 3.477 1.569 3.477 3.651 0 2.349-1.764 3.525-4.801 3.525-1.566 0-3.23-.025-4.162-.074v-12.733h2.645v5.239l3.771-5.239zm-3.502 9.01c0-1.199-.906-2.008-2.303-2.008-.416 0-.857.026-1.224.049v3.674c.343.049.685.049 1.127.049 1.494 0 2.4-.613 2.4-1.764m22.957-9.01-4.799 12.733h-3.111l-4.824-12.733h2.646l.93 2.473h5.314l.906-2.473zm-4.506 4.383h-4.014l1.37 3.6c.244.66.49 1.371.638 1.982.196-.586.44-1.345.684-2.008zm15.147 8.35h-2.645v-12.732h2.645zm21.519-12.733v12.733h-2.57l.025-5.608c0-1.64.024-2.865.072-3.673-.441.882-.931 1.714-1.419 2.498l-4.286 6.783h-3.525v-12.733h2.57l-.025 6.661c0 1.175-.024 1.959-.072 2.669.367-.759.832-1.666 1.322-2.425l4.383-6.905z" fill="#47545b" fill-rule="evenodd" transform="translate(288.6685 268.0557)"/></g></svg>

<?xml version="1.0" encoding="UTF-8" standalone="no"?>
<!-- Created with Inkscape (http://www.inkscape.org/) -->
<svg
   xmlns:dc="http://purl.org/dc/elements/1.1/"
   xmlns:cc="http://creativecommons.org/ns#"
   xmlns:rdf="http://www.w3.org/1999/02/22-rdf-syntax-ns#"
   xmlns:svg="http://www.w3.org/2000/svg"
   xmlns="http://www.w3.org/2000/svg"
   xmlns:sodipodi="http://sodipodi.sourceforge.net/DTD/sodipodi-0.dtd"
   xmlns:inkscape="http://www.inkscape.org/namespaces/inkscape"
   id="svg2403"
   sodipodi:version="0.32"
   inkscape:version="0.46"
   width="612.59998"
   height="136.03"
   xml:space="preserve"
   sodipodi:docname="City Airport Train Logo.svg"
   version="1.0"
   inkscape:output_extension="org.inkscape.output.svg.inkscape"><metadata
     id="metadata2408"><rdf:RDF><cc:Work
         rdf:about=""><dc:format>image/svg+xml</dc:format><dc:type
           rdf:resource="http://purl.org/dc/dcmitype/StillImage" /></cc:Work></rdf:RDF></metadata><defs
     id="defs2406"><inkscape:perspective
       sodipodi:type="inkscape:persp3d"
       inkscape:vp_x="0 : 526.18109 : 1"
       inkscape:vp_y="0 : 1000 : 0"
       inkscape:vp_z="744.09448 : 526.18109 : 1"
       inkscape:persp3d-origin="372.04724 : 350.78739 : 1"
       id="perspective2410" /><clipPath
       clipPathUnits="userSpaceOnUse"
       id="clipPath2418"><path
         d="M 0,595.28 L 841.89,595.28 L 841.89,0 L 0,0 L 0,595.28 z"
         id="path2420" /></clipPath></defs><sodipodi:namedview
     inkscape:window-height="974"
     inkscape:window-width="1280"
     inkscape:pageshadow="2"
     inkscape:pageopacity="0.0"
     guidetolerance="10.0"
     gridtolerance="10.0"
     objecttolerance="10.0"
     borderopacity="1.0"
     bordercolor="#666666"
     pagecolor="#ffffff"
     id="base"
     showgrid="false"
     inkscape:zoom="1"
     inkscape:cx="526.18127"
     inkscape:cy="292.04999"
     inkscape:window-x="-8"
     inkscape:window-y="-8"
     inkscape:current-layer="g2412" /><g
     id="g2412"
     inkscape:groupmode="layer"
     inkscape:label="CAT_Logo_pos_RGB"
     transform="matrix(1.25,0,0,-1.25,-348.71438,462.33916)"><g
       id="g2414"
       transform="matrix(1.7063057,0,0,1.7063057,-193.83916,-192.09772)"><g
         id="g2416"
         clip-path="url(#clipPath2418)"><g
           id="g2422"
           transform="translate(419.647,327.458)"><path
             d="M 0,0 L -4.271,-8.739 L 15.052,-8.739 L 2.66,-34.158 L 15.294,-34.158 L 27.685,-8.739 L 50.781,-8.739 L 55.052,0 L 0,0 z M -5.701,0 L -52.296,0 C -58.375,0.039 -65.451,-3.477 -67.713,-7.765 L -80.592,-34.166 L -67.993,-34.166 L -61.707,-21.192 L -28.76,-21.192 L -35.047,-34.166 L -22.363,-34.166 L -5.701,0 z M -53.918,-8.739 L -22.645,-8.739 L -24.684,-12.915 L -57.639,-12.915 L -56.238,-10.02 C -55.896,-9.312 -54.859,-8.739 -53.918,-8.739 M -126.575,-24.106 C -126.905,-24.813 -126.417,-25.391 -125.488,-25.391 L -81.857,-25.401 L -86.134,-34.166 L -132.838,-34.158 C -138.648,-33.912 -141.821,-30.576 -140.294,-26.377 L -131.398,-8.154 C -128.883,-3.615 -121.876,0.015 -115.452,0.015 L -64.551,0 C -68.164,-1.574 -71.313,-4.015 -72.827,-6.886 L -73.73,-8.739 L -117.383,-8.739 C -118.324,-8.739 -119.358,-9.312 -119.702,-10.02 L -126.575,-24.106 z"
             style="fill:#47545b;fill-opacity:1;fill-rule:nonzero;stroke:none"
             id="path2424" /></g><g
           id="g2426"
           transform="translate(446.1602,306.0122)"><path
             d="M 0,0 L 113.49,0 L 109.23,8.75 L 4.262,8.75 L 0,0 z M 115.416,-3.945 L -1.928,-3.945 L -6.201,-12.712 L 108.729,-12.712 C 114.355,-12.355 117.395,-9.056 115.895,-4.931 L 115.416,-3.945 z M 32.861,21.446 L 91.65,21.446 C 97.914,21.225 104.566,17.701 107.008,13.292 L 107.301,12.695 L 28.588,12.695 L 32.861,21.446 z"
             style="fill:#acca57;fill-opacity:1;fill-rule:nonzero;stroke:none"
             id="path2428" /></g><g
           id="g2430"
           transform="translate(288.6685,268.0557)"><path
             d="M 0,0 L -0.221,2.352 C -0.979,1.982 -1.935,1.764 -2.89,1.764 C -5.412,1.764 -6.881,3.209 -6.881,5.951 C -6.881,8.473 -5.535,10.285 -3.037,10.285 C -2.154,10.285 -1.248,10.139 -0.343,9.844 L -0.098,12.17 C -0.955,12.416 -2.008,12.514 -2.841,12.514 C -7.616,12.514 -9.697,9.305 -9.697,5.705 C -9.697,1.838 -7.591,-0.563 -3.428,-0.563 C -2.18,-0.563 -1.054,-0.367 0,0 M 11.232,12.342 L 8.587,12.342 L 8.587,-0.39 L 11.232,-0.39 L 11.232,12.342 z M 28.858,10.088 L 28.858,12.342 L 19.162,12.342 L 19.162,10.088 L 22.688,10.088 L 22.688,-0.391 L 25.332,-0.391 L 25.332,10.088 L 28.858,10.088 z M 46.479,12.342 L 43.736,12.342 L 41.875,8.816 C 41.483,8.057 41.066,7.225 40.725,6.342 C 40.381,7.199 40.039,7.959 39.671,8.693 L 37.786,12.342 L 34.871,12.342 L 39.328,3.846 L 39.328,-0.391 L 41.973,-0.391 L 41.973,3.869 L 46.479,12.342 z M 75.994,-0.391 L 71.195,12.342 L 68.085,12.342 L 63.262,-0.391 L 65.906,-0.391 L 66.837,2.082 L 72.15,2.082 L 73.057,-0.391 L 75.994,-0.391 z M 71.49,3.992 L 67.473,3.992 L 68.845,7.592 C 69.09,8.252 69.334,8.963 69.48,9.574 C 69.678,8.988 69.922,8.229 70.167,7.566 L 71.49,3.992 z M 86.636,12.342 L 83.99,12.342 L 83.99,-0.39 L 86.636,-0.39 L 86.636,12.342 z M 106.123,-0.391 L 102.965,3.869 C 102.572,4.408 102.229,4.896 101.936,5.24 C 103.967,5.559 105.414,6.809 105.414,8.891 C 105.414,11.24 103.65,12.416 100.613,12.416 C 99.047,12.416 97.381,12.391 96.451,12.342 L 96.451,-0.391 L 99.096,-0.391 L 99.096,4.848 L 102.865,-0.391 L 106.123,-0.391 z M 102.621,8.619 C 102.621,7.42 101.715,6.611 100.318,6.611 C 99.902,6.611 99.463,6.637 99.096,6.66 L 99.096,10.334 C 99.438,10.383 99.781,10.383 100.221,10.383 C 101.715,10.383 102.621,9.77 102.621,8.619 M 123.719,8.301 C 123.719,10.873 121.881,12.416 118.65,12.416 C 117.156,12.416 115.564,12.367 114.488,12.342 L 114.488,-0.391 L 117.131,-0.391 L 117.131,3.795 C 117.449,3.771 117.939,3.746 118.258,3.746 C 121.49,3.746 123.719,5.51 123.719,8.301 M 120.902,8.131 C 120.902,6.637 119.898,5.852 118.258,5.852 C 117.914,5.852 117.426,5.877 117.131,5.951 L 117.131,10.26 C 117.475,10.285 117.939,10.285 118.43,10.285 C 120.07,10.285 120.902,9.379 120.902,8.131 M 143.839,6.098 C 143.839,10.408 141.267,12.563 137.57,12.563 C 134.042,12.563 130.959,10.039 130.959,5.852 C 130.959,2.033 133.016,-0.611 137.152,-0.611 C 140.802,-0.611 143.839,1.885 143.839,6.098 M 140.998,5.926 C 140.998,3.086 139.333,1.715 137.298,1.715 C 134.802,1.715 133.775,3.625 133.775,6.049 C 133.775,8.791 135.462,10.26 137.398,10.26 C 139.578,10.26 140.998,8.768 140.998,5.926 M 162.048,-0.391 L 158.89,3.869 C 158.5,4.408 158.156,4.896 157.863,5.24 C 159.894,5.559 161.339,6.809 161.339,8.891 C 161.339,11.24 159.576,12.416 156.539,12.416 C 154.972,12.416 153.308,12.391 152.376,12.342 L 152.376,-0.391 L 155.021,-0.391 L 155.021,4.848 L 158.792,-0.391 L 162.048,-0.391 z M 158.548,8.619 C 158.548,7.42 157.642,6.611 156.246,6.611 C 155.83,6.611 155.388,6.637 155.021,6.66 L 155.021,10.334 C 155.365,10.383 155.708,10.383 156.148,10.383 C 157.642,10.383 158.548,9.77 158.548,8.619 M 178.152,10.088 L 178.152,12.342 L 168.455,12.342 L 168.455,10.088 L 171.98,10.088 L 171.98,-0.391 L 174.625,-0.391 L 174.625,10.088 L 178.152,10.088 z M 204.482,10.088 L 204.482,12.342 L 194.785,12.342 L 194.785,10.088 L 198.312,10.088 L 198.312,-0.391 L 200.957,-0.391 L 200.957,10.088 L 204.482,10.088 z M 222.152,-0.391 L 218.992,3.869 C 218.601,4.408 218.257,4.896 217.964,5.24 C 219.996,5.559 221.441,6.809 221.441,8.891 C 221.441,11.24 219.677,12.416 216.64,12.416 C 215.074,12.416 213.41,12.391 212.478,12.342 L 212.478,-0.391 L 215.123,-0.391 L 215.123,4.848 L 218.894,-0.391 L 222.152,-0.391 z M 218.65,8.619 C 218.65,7.42 217.744,6.611 216.347,6.611 C 215.931,6.611 215.49,6.637 215.123,6.66 L 215.123,10.334 C 215.466,10.383 215.808,10.383 216.25,10.383 C 217.744,10.383 218.65,9.77 218.65,8.619 M 241.607,-0.391 L 236.808,12.342 L 233.697,12.342 L 228.873,-0.391 L 231.519,-0.391 L 232.449,2.082 L 237.763,2.082 L 238.669,-0.391 L 241.607,-0.391 z M 237.101,3.992 L 233.087,3.992 L 234.457,7.592 C 234.701,8.252 234.947,8.963 235.095,9.574 C 235.291,8.988 235.535,8.229 235.779,7.566 L 237.101,3.992 z M 252.248,12.342 L 249.603,12.342 L 249.603,-0.39 L 252.248,-0.39 L 252.248,12.342 z M 273.767,-0.391 L 273.767,12.342 L 271.197,12.342 L 271.222,6.734 C 271.222,5.094 271.246,3.869 271.294,3.061 C 270.853,3.943 270.363,4.775 269.875,5.559 L 265.589,12.342 L 262.064,12.342 L 262.064,-0.391 L 264.634,-0.391 L 264.609,6.27 C 264.609,7.445 264.585,8.229 264.537,8.939 C 264.904,8.18 265.369,7.273 265.859,6.514 L 270.242,-0.391 L 273.767,-0.391 z"
             style="fill:#47545b;fill-opacity:1;fill-rule:evenodd;stroke:none"
             id="path2432" /></g></g></g></g></svg>
